; generated by Slic3r Prusa Edition 1.41.2+linux64 on 2019-04-17 at 21:54:38

; 

; external perimeters extrusion width = 0.45mm
; perimeters extrusion width = 0.45mm
; infill extrusion width = 0.45mm
; solid infill extrusion width = 0.45mm
; top infill extrusion width = 0.40mm
; first layer extrusion width = 0.42mm

M73 P0 R99
M73 Q0 S99
M201 X1000 Y1000 Z1000 E5000 ; sets maximum accelerations, mm/sec^2
M203 X200 Y200 Z12 E120 ; sets maximum feedrates, mm/sec
M204 P1250 R1250 T1250 ; sets acceleration (P, T) and retract acceleration (R), mm/sec^2
M205 X8.00 Y8.00 Z0.40 E1.50 ; sets the jerk limits, mm/sec
M205 S0 T0 ; sets the minimum extruding and travel feed rate, mm/sec
M107
M115 U3.6.0 ; tell printer latest fw version
M83  ; extruder relative mode
M104 S265 ; set extruder temp
M140 S100 ; set bed temp
M190 S100 ; wait for bed temp
M109 S265 ; wait for extruder temp
G28 W ; home all without mesh bed level
G80 ; mesh bed leveling
G1 Y-3.0 F1000.0 ; go outside print area
G92 E0.0
G1 X60.0 E9.0  F1000.0 ; intro line
M73 Q0 S99
M73 P0 R99
G1 X100.0 E12.5  F1000.0 ; intro line
G92 E0.0
M221 S95
M900 K30; Filament gcode
G21 ; set units to millimeters
G90 ; use absolute coordinates
M83 ; use relative distances for extrusion
;BEFORE_LAYER_CHANGE
G92 E0.0
;0.2


G1 E-0.80000 F2100.00000
G1 Z0.600 F10800.000
;AFTER_LAYER_CHANGE
;0.2
G1 X84.892 Y66.788
G1 Z0.200
G1 E0.80000 F2100.00000
M204 S1000
G1 F1200
G1 X85.789 Y65.787 E0.04216
G1 X86.816 Y64.869 E0.04319
G1 X87.942 Y64.069 E0.04331
G1 X89.066 Y63.444 E0.04033
G1 X90.558 Y62.827 E0.05063
G1 X91.791 Y62.477 E0.04019
G1 X93.241 Y62.240 E0.04605
G1 X94.518 Y62.171 E0.04010
G1 X155.484 Y62.171 E1.91154
G1 X156.853 Y62.248 E0.04301
G1 X158.107 Y62.457 E0.03987
G1 X159.570 Y62.869 E0.04765
G1 X160.833 Y63.392 E0.04285
G1 X161.957 Y64.009 E0.04021
G1 X163.273 Y64.945 E0.05063
G1 X164.218 Y65.795 E0.03985
G1 X165.135 Y66.822 E0.04319
G1 X165.931 Y67.942 E0.04308
G1 X166.553 Y69.060 E0.04010
G1 X167.170 Y70.547 E0.05050
G1 X167.520 Y71.777 E0.04010
G1 X167.749 Y73.124 E0.04285
G1 X167.829 Y74.518 E0.04376
G1 X167.827 Y135.564 E1.91406
G1 X167.751 Y136.860 E0.04072
G1 X167.542 Y138.115 E0.03987
G1 X167.133 Y139.567 E0.04730
G1 X166.608 Y140.833 E0.04296
G1 X165.996 Y141.947 E0.03987
G1 X165.108 Y143.212 E0.04845
G1 X164.208 Y144.215 E0.04227
G1 X163.175 Y145.138 E0.04342
G1 X162.049 Y145.937 E0.04330
G1 X160.840 Y146.605 E0.04331
G1 X159.561 Y147.135 E0.04342
G1 X158.233 Y147.518 E0.04330
G1 X156.868 Y147.750 E0.04342
G1 X155.533 Y147.828 E0.04193
G1 X94.436 Y147.827 E1.91567
G1 X93.140 Y147.751 E0.04072
G1 X91.885 Y147.542 E0.03987
G1 X90.430 Y147.131 E0.04742
G1 X89.171 Y146.610 E0.04273
G1 X88.053 Y145.996 E0.03998
G1 X86.788 Y145.108 E0.04845
G1 X85.787 Y144.211 E0.04216
G1 X84.865 Y143.178 E0.04342
G1 X84.063 Y142.049 E0.04342
G1 X83.395 Y140.840 E0.04330
G1 X82.865 Y139.560 E0.04342
G1 X82.482 Y138.233 E0.04330
G1 X82.250 Y136.868 E0.04342
G1 X82.172 Y135.533 E0.04193
G1 X82.173 Y74.432 E1.91578
G1 X82.249 Y73.140 E0.04060
G1 X82.458 Y71.885 E0.03987
G1 X82.869 Y70.430 E0.04742
G1 X83.392 Y69.167 E0.04285
G1 X84.004 Y68.053 E0.03987
G1 X84.857 Y66.838 E0.04656
; PURGING FINISHED
G1 F8640
G1 X85.789 Y65.787 E-0.32425
G1 X86.816 Y64.869 E-0.31805
G1 X87.232 Y64.574 E-0.11770
G1 E-0.04000 F2100.00000
G1 Z0.800 F10800.000
G1 X156.057 Y136.057
G1 Z0.200
G1 E0.80000 F2100.00000
G1 F1200
G1 X156.561 Y135.670 E0.01992
G1 X157.148 Y135.427 E0.01992
G1 X157.760 Y135.347 E0.01935
G1 X158.406 Y135.426 E0.02040
G1 X158.995 Y135.670 E0.02000
G1 X159.499 Y136.057 E0.01992
G1 X159.886 Y136.561 E0.01992
G1 X160.129 Y137.148 E0.01992
G1 X160.212 Y137.778 E0.01992
G1 X160.129 Y138.408 E0.01992
G1 X159.886 Y138.995 E0.01992
G1 X159.499 Y139.499 E0.01992
G1 X158.995 Y139.886 E0.01992
G1 X158.408 Y140.129 E0.01992
G1 X157.778 Y140.212 E0.01992
G1 X157.148 Y140.129 E0.01992
G1 X156.561 Y139.886 E0.01992
G1 X156.057 Y139.499 E0.01992
G1 X155.670 Y138.995 E0.01992
G1 X155.427 Y138.408 E0.01992
G1 X155.344 Y137.778 E0.01992
G1 X155.427 Y137.148 E0.01992
G1 X155.670 Y136.561 E0.01992
G1 X156.021 Y136.105 E0.01804
G1 X156.320 Y136.334 F10800.000
G1 F1200
G1 X156.751 Y136.000 E0.01712
G1 X157.246 Y135.795 E0.01681
G1 X157.761 Y135.727 E0.01628
G1 X158.309 Y135.794 E0.01728
G1 X158.805 Y136.000 E0.01683
G1 X159.230 Y136.326 E0.01681
G1 X159.556 Y136.751 E0.01681
G1 X159.761 Y137.246 E0.01681
G1 X159.831 Y137.778 E0.01681
G1 X159.761 Y138.309 E0.01681
G1 X159.556 Y138.805 E0.01681
G1 X159.230 Y139.230 E0.01681
G1 X158.805 Y139.556 E0.01681
G1 X158.309 Y139.761 E0.01681
G1 X157.778 Y139.831 E0.01681
G1 X157.246 Y139.761 E0.01681
G1 X156.751 Y139.556 E0.01681
G1 X156.326 Y139.230 E0.01681
G1 X156.000 Y138.805 E0.01681
G1 X155.795 Y138.309 E0.01681
G1 X155.725 Y137.778 E0.01681
G1 X155.795 Y137.246 E0.01681
G1 X156.000 Y136.751 E0.01681
G1 X156.283 Y136.382 E0.01460
G1 X156.215 Y135.948 F10800.000
G1 F8640
G1 X156.751 Y136.000 E-0.13952
G1 X157.246 Y135.795 E-0.12377
G1 X157.761 Y135.727 E-0.11993
G1 X158.309 Y135.794 E-0.12729
G1 X158.805 Y136.000 E-0.12397
G1 X159.230 Y136.326 E-0.12377
G1 X159.234 Y136.332 E-0.00175
G1 E-0.04000 F2100.00000
G1 Z0.800 F10800.000
G1 X151.727 Y131.727
G1 Z0.200
G1 E0.80000 F2100.00000
G1 F1200
G1 X151.223 Y132.114 E0.01992
G1 X150.636 Y132.357 E0.01992
G1 X150.006 Y132.440 E0.01992
G1 X149.376 Y132.357 E0.01992
G1 X148.789 Y132.114 E0.01992
G1 X148.285 Y131.727 E0.01992
G1 X147.899 Y131.223 E0.01992
G1 X147.656 Y130.636 E0.01992
G1 X147.573 Y130.006 E0.01992
G1 X147.656 Y129.376 E0.01992
G1 X147.899 Y128.789 E0.01992
G1 X148.285 Y128.285 E0.01992
G1 X148.789 Y127.899 E0.01992
G1 X149.376 Y127.656 E0.01992
G1 X149.963 Y127.578 E0.01856
G1 X150.631 Y127.653 E0.02107
G1 X151.223 Y127.899 E0.02010
G1 X151.727 Y128.285 E0.01992
G1 X152.114 Y128.789 E0.01992
G1 X152.357 Y129.376 E0.01992
G1 X152.440 Y130.006 E0.01992
G1 X152.357 Y130.636 E0.01992
G1 X152.114 Y131.223 E0.01992
G1 X151.764 Y131.680 E0.01804
G1 X151.465 Y131.450 F10800.000
G1 F1200
G1 X151.033 Y131.785 E0.01712
G1 X150.538 Y131.990 E0.01681
G1 X150.006 Y132.060 E0.01681
G1 X149.475 Y131.990 E0.01681
G1 X148.980 Y131.785 E0.01681
G1 X148.554 Y131.458 E0.01681
G1 X148.228 Y131.033 E0.01681
G1 X148.023 Y130.538 E0.01681
G1 X147.953 Y130.006 E0.01681
G1 X148.023 Y129.475 E0.01681
G1 X148.228 Y128.980 E0.01681
G1 X148.554 Y128.554 E0.01681
G1 X148.980 Y128.228 E0.01681
G1 X149.475 Y128.023 E0.01681
G1 X149.967 Y127.958 E0.01556
G1 X150.536 Y128.022 E0.01796
G1 X151.033 Y128.228 E0.01687
G1 X151.458 Y128.554 E0.01681
G1 X151.785 Y128.980 E0.01681
G1 X151.990 Y129.475 E0.01681
G1 X152.060 Y130.006 E0.01681
G1 X151.990 Y130.538 E0.01681
G1 X151.785 Y131.033 E0.01681
G1 X151.501 Y131.402 E0.01460
G1 X151.569 Y131.836 F10800.000
G1 F8640
G1 X151.033 Y131.785 E-0.13952
G1 X150.538 Y131.990 E-0.12377
G1 X150.006 Y132.060 E-0.12377
G1 X149.475 Y131.990 E-0.12377
G1 X148.980 Y131.785 E-0.12377
G1 X148.554 Y131.458 E-0.12377
G1 X148.550 Y131.453 E-0.00163
G1 E-0.04000 F2100.00000
G1 Z0.800 F10800.000
G1 X157.438 Y124.380
G1 Z0.200
G1 E0.80000 F2100.00000
G1 F1200
G1 X157.622 Y124.304 E0.00625
G1 X157.438 Y124.228 E0.00625
G1 X157.092 Y123.962 E0.01368
G1 X156.826 Y123.616 E0.01368
G1 X156.659 Y123.213 E0.01368
G1 X156.602 Y122.780 E0.01368
G1 X156.659 Y122.347 E0.01368
G1 X156.826 Y121.944 E0.01368
G1 X157.092 Y121.598 E0.01368
G1 X157.438 Y121.332 E0.01368
G1 X157.841 Y121.165 E0.01368
G1 X158.274 Y121.108 E0.01368
G1 X158.707 Y121.165 E0.01368
G1 X159.110 Y121.332 E0.01368
G1 X159.456 Y121.598 E0.01368
G1 X159.722 Y121.944 E0.01368
G1 X159.889 Y122.347 E0.01368
G1 X159.946 Y122.780 E0.01368
G1 X159.889 Y123.213 E0.01368
G1 X159.722 Y123.616 E0.01368
G1 X159.456 Y123.962 E0.01368
G1 X159.110 Y124.228 E0.01368
G1 X158.926 Y124.304 E0.00625
G1 X159.110 Y124.380 E0.00625
G1 X159.456 Y124.646 E0.01368
G1 X159.722 Y124.992 E0.01368
G1 X159.889 Y125.395 E0.01368
G1 X159.946 Y125.828 E0.01368
G1 X159.889 Y126.261 E0.01368
G1 X159.722 Y126.664 E0.01368
G1 X159.456 Y127.010 E0.01368
G1 X159.110 Y127.276 E0.01368
G1 X158.707 Y127.443 E0.01368
G1 X158.274 Y127.500 E0.01368
G1 X157.841 Y127.443 E0.01368
G1 X157.438 Y127.276 E0.01368
G1 X157.092 Y127.010 E0.01368
G1 X156.826 Y126.664 E0.01368
G1 X156.659 Y126.261 E0.01368
G1 X156.602 Y125.828 E0.01368
G1 X156.659 Y125.395 E0.01368
G1 X156.826 Y124.992 E0.01368
G1 X157.092 Y124.646 E0.01368
G1 X157.391 Y124.417 E0.01180
G1 X157.620 Y124.716 F10800.000
G1 F1200
G1 X157.940 Y124.581 E0.01088
G1 X158.274 Y124.537 E0.01057
G1 X158.608 Y124.581 E0.01057
G1 X158.920 Y124.710 E0.01057
G1 X159.187 Y124.915 E0.01057
G1 X159.392 Y125.182 E0.01057
G1 X159.521 Y125.494 E0.01057
G1 X159.565 Y125.828 E0.01057
G1 X159.521 Y126.162 E0.01057
G1 X159.392 Y126.474 E0.01057
G1 X159.187 Y126.741 E0.01057
G1 X158.920 Y126.946 E0.01057
G1 X158.608 Y127.075 E0.01057
G1 X158.274 Y127.119 E0.01057
G1 X157.940 Y127.075 E0.01057
G1 X157.628 Y126.946 E0.01057
G1 X157.361 Y126.741 E0.01057
G1 X157.156 Y126.474 E0.01057
G1 X157.027 Y126.162 E0.01057
G1 X156.983 Y125.828 E0.01057
G1 X157.027 Y125.494 E0.01057
G1 X157.156 Y125.182 E0.01057
G1 X157.361 Y124.915 E0.01057
G1 X157.573 Y124.753 E0.00836
G1 X157.618 Y124.369 F10800.000
G1 X157.940 Y124.027
G1 F1200
G1 X157.628 Y123.898 E0.01057
G1 X157.361 Y123.693 E0.01057
G1 X157.156 Y123.426 E0.01057
G1 X157.027 Y123.114 E0.01057
G1 X156.983 Y122.780 E0.01057
G1 X157.027 Y122.446 E0.01057
G1 X157.156 Y122.134 E0.01057
G1 X157.361 Y121.867 E0.01057
G1 X157.628 Y121.662 E0.01057
G1 X157.940 Y121.533 E0.01057
G1 X158.274 Y121.489 E0.01057
G1 X158.608 Y121.533 E0.01057
G1 X158.920 Y121.662 E0.01057
G1 X159.187 Y121.867 E0.01057
G1 X159.392 Y122.134 E0.01057
G1 X159.521 Y122.446 E0.01057
G1 X159.565 Y122.780 E0.01057
G1 X159.521 Y123.114 E0.01057
G1 X159.392 Y123.426 E0.01057
G1 X159.187 Y123.693 E0.01057
G1 X158.920 Y123.898 E0.01057
G1 X158.608 Y124.027 E0.01057
G1 X158.274 Y124.071 E0.01057
G1 X157.999 Y124.035 E0.00869
G1 X157.701 Y124.266 F10800.000
G1 F8640
G1 X157.628 Y123.898 E-0.09129
G1 X157.361 Y123.693 E-0.07784
G1 X157.156 Y123.426 E-0.07784
G1 X157.027 Y123.114 E-0.07784
G1 X156.983 Y122.780 E-0.07784
G1 X157.027 Y122.446 E-0.07784
G1 X157.156 Y122.134 E-0.07784
G1 X157.361 Y121.867 E-0.07784
G1 X157.628 Y121.662 E-0.07784
G1 X157.812 Y121.585 E-0.04601
G1 E-0.04000 F2100.00000
G1 Z0.800 F10800.000
G1 X150.636 Y82.344
G1 Z0.200
G1 E0.80000 F2100.00000
G1 F1200
G1 X150.006 Y82.427 E0.01992
G1 X149.376 Y82.344 E0.01992
G1 X148.830 Y82.118 E0.01856
G1 X148.289 Y81.719 E0.02107
G1 X147.899 Y81.211 E0.02010
G1 X147.656 Y80.624 E0.01992
G1 X147.573 Y79.994 E0.01992
G1 X147.656 Y79.364 E0.01992
G1 X147.899 Y78.777 E0.01992
G1 X148.285 Y78.273 E0.01992
G1 X148.789 Y77.886 E0.01992
G1 X149.376 Y77.643 E0.01992
G1 X149.963 Y77.566 E0.01856
G1 X150.631 Y77.641 E0.02107
G1 X151.223 Y77.886 E0.02010
G1 X151.727 Y78.273 E0.01992
G1 X152.114 Y78.777 E0.01992
G1 X152.357 Y79.364 E0.01992
G1 X152.440 Y79.994 E0.01992
G1 X152.357 Y80.624 E0.01992
G1 X152.114 Y81.211 E0.01992
G1 X151.727 Y81.715 E0.01992
G1 X151.223 Y82.101 E0.01992
G1 X150.692 Y82.321 E0.01804
G1 X150.547 Y81.973 F10800.000
G1 F1200
G1 X150.006 Y82.047 E0.01712
G1 X149.475 Y81.977 E0.01681
G1 X149.016 Y81.787 E0.01556
G1 X148.556 Y81.447 E0.01796
G1 X148.228 Y81.020 E0.01687
G1 X148.023 Y80.525 E0.01681
G1 X147.953 Y79.994 E0.01681
G1 X148.023 Y79.462 E0.01681
G1 X148.228 Y78.967 E0.01681
G1 X148.554 Y78.542 E0.01681
G1 X148.980 Y78.215 E0.01681
G1 X149.475 Y78.010 E0.01681
G1 X149.967 Y77.946 E0.01556
G1 X150.536 Y78.010 E0.01796
G1 X151.033 Y78.215 E0.01687
G1 X151.458 Y78.542 E0.01681
G1 X151.785 Y78.967 E0.01681
G1 X151.990 Y79.462 E0.01681
G1 X152.060 Y79.994 E0.01681
G1 X151.990 Y80.525 E0.01681
G1 X151.785 Y81.020 E0.01681
G1 X151.458 Y81.446 E0.01681
G1 X151.033 Y81.772 E0.01681
G1 X150.603 Y81.950 E0.01460
G1 X150.445 Y82.360 F10800.000
G1 F8640
G1 X150.006 Y82.047 E-0.13952
G1 X149.475 Y81.977 E-0.12377
G1 X149.016 Y81.787 E-0.11456
G1 X148.556 Y81.447 E-0.13223
G1 X148.228 Y81.020 E-0.12424
G1 X148.023 Y80.525 E-0.12377
G1 X148.022 Y80.517 E-0.00191
G1 E-0.04000 F2100.00000
G1 Z0.800 F10800.000
G1 X156.561 Y74.330
G1 Z0.200
G1 E0.80000 F2100.00000
G1 F1200
G1 X156.057 Y73.943 E0.01992
G1 X155.670 Y73.439 E0.01992
G1 X155.427 Y72.852 E0.01992
G1 X155.344 Y72.222 E0.01992
G1 X155.427 Y71.592 E0.01992
G1 X155.670 Y71.005 E0.01992
G1 X156.057 Y70.501 E0.01992
G1 X156.561 Y70.114 E0.01992
G1 X157.148 Y69.871 E0.01992
G1 X157.760 Y69.791 E0.01935
G1 X158.406 Y69.870 E0.02040
G1 X158.995 Y70.114 E0.02000
G1 X159.499 Y70.501 E0.01992
G1 X159.886 Y71.005 E0.01992
G1 X160.129 Y71.592 E0.01992
G1 X160.212 Y72.222 E0.01992
G1 X160.129 Y72.852 E0.01992
G1 X159.886 Y73.439 E0.01992
G1 X159.499 Y73.943 E0.01992
G1 X158.995 Y74.330 E0.01992
G1 X158.408 Y74.573 E0.01992
G1 X157.778 Y74.656 E0.01992
G1 X157.148 Y74.573 E0.01992
G1 X156.617 Y74.353 E0.01804
G1 X156.761 Y74.004 F10800.000
G1 F1200
G1 X156.326 Y73.674 E0.01712
G1 X156.000 Y73.249 E0.01681
G1 X155.795 Y72.754 E0.01681
G1 X155.725 Y72.222 E0.01681
G1 X155.795 Y71.691 E0.01681
G1 X156.000 Y71.195 E0.01681
G1 X156.326 Y70.770 E0.01681
G1 X156.751 Y70.444 E0.01681
G1 X157.246 Y70.239 E0.01681
G1 X157.761 Y70.171 E0.01628
G1 X158.309 Y70.238 E0.01728
G1 X158.805 Y70.444 E0.01683
G1 X159.230 Y70.770 E0.01681
G1 X159.556 Y71.195 E0.01681
G1 X159.761 Y71.691 E0.01681
G1 X159.831 Y72.222 E0.01681
G1 X159.761 Y72.754 E0.01681
G1 X159.556 Y73.249 E0.01681
G1 X159.230 Y73.674 E0.01681
G1 X158.805 Y74.000 E0.01681
G1 X158.309 Y74.205 E0.01681
G1 X157.778 Y74.275 E0.01681
G1 X157.246 Y74.205 E0.01681
G1 X156.816 Y74.027 E0.01460
G1 X156.415 Y74.206 F10800.000
G1 F8640
G1 X156.326 Y73.674 E-0.13952
G1 X156.000 Y73.249 E-0.12377
G1 X155.795 Y72.754 E-0.12377
G1 X155.725 Y72.222 E-0.12377
G1 X155.795 Y71.691 E-0.12377
G1 X156.000 Y71.195 E-0.12377
G1 X156.004 Y71.190 E-0.00163
G1 E-0.04000 F2100.00000
G1 Z0.800 F10800.000
G1 X154.543 Y91.228
G1 Z0.200
G1 E0.80000 F2100.00000
G1 F1200
G1 X154.543 Y118.772 E0.86365
G1 X153.532 Y120.749 E0.06959
G1 X152.524 Y122.453 E0.06208
G1 X151.379 Y124.140 E0.06394
G1 X150.068 Y125.826 E0.06698
G1 X148.742 Y127.327 E0.06278
G1 X147.327 Y128.742 E0.06277
G1 X145.797 Y130.093 E0.06399
G1 X144.140 Y131.379 E0.06576
G1 X142.453 Y132.524 E0.06393
G1 X140.749 Y133.532 E0.06208
G1 X138.772 Y134.543 E0.06959
G1 X111.228 Y134.543 E0.86365
G1 X109.251 Y133.532 E0.06959
G1 X107.547 Y132.524 E0.06208
G1 X105.860 Y131.379 E0.06394
G1 X104.174 Y130.068 E0.06698
G1 X102.673 Y128.742 E0.06278
G1 X101.258 Y127.327 E0.06277
G1 X99.907 Y125.797 E0.06399
G1 X98.621 Y124.140 E0.06576
G1 X97.476 Y122.453 E0.06393
G1 X96.468 Y120.749 E0.06208
G1 X95.457 Y118.772 E0.06959
G1 X95.457 Y91.228 E0.86365
G1 X96.468 Y89.251 E0.06959
G1 X97.476 Y87.547 E0.06208
G1 X98.621 Y85.860 E0.06394
G1 X99.932 Y84.174 E0.06698
G1 X101.258 Y82.673 E0.06278
G1 X102.673 Y81.258 E0.06277
G1 X104.203 Y79.907 E0.06399
G1 X105.860 Y78.621 E0.06576
G1 X107.547 Y77.476 E0.06393
G1 X109.251 Y76.468 E0.06208
G1 X111.228 Y75.457 E0.06959
G1 X138.772 Y75.457 E0.86365
G1 X140.749 Y76.468 E0.06959
G1 X142.453 Y77.476 E0.06208
G1 X144.140 Y78.621 E0.06394
G1 X145.826 Y79.932 E0.06698
G1 X147.327 Y81.258 E0.06278
G1 X148.742 Y82.673 E0.06277
G1 X150.093 Y84.203 E0.06399
G1 X151.379 Y85.860 E0.06576
G1 X152.524 Y87.547 E0.06393
G1 X153.532 Y89.251 E0.06208
G1 X154.516 Y91.174 E0.06771
G1 X154.166 Y91.318 F10800.000
G1 F1200
G1 X154.166 Y118.682 E0.85796
G1 X153.202 Y120.567 E0.06638
G1 X152.206 Y122.251 E0.06135
G1 X151.074 Y123.918 E0.06319
G1 X149.778 Y125.586 E0.06622
G1 X148.468 Y127.068 E0.06204
G1 X147.068 Y128.468 E0.06204
G1 X145.556 Y129.803 E0.06325
G1 X143.918 Y131.074 E0.06501
G1 X142.251 Y132.206 E0.06318
G1 X140.567 Y133.202 E0.06135
G1 X138.682 Y134.166 E0.06638
G1 X111.318 Y134.166 E0.85796
G1 X109.433 Y133.202 E0.06638
G1 X107.749 Y132.206 E0.06135
G1 X106.082 Y131.074 E0.06319
G1 X104.414 Y129.778 E0.06622
G1 X102.932 Y128.468 E0.06204
