; generated by Slic3r Prusa Edition 1.41.2+linux64 on 2019-04-17 at 21:55:01

; 

; external perimeters extrusion width = 0.45mm
; perimeters extrusion width = 0.45mm
; infill extrusion width = 0.45mm
; solid infill extrusion width = 0.45mm
; top infill extrusion width = 0.40mm
; first layer extrusion width = 0.42mm

M73 P0 R143
M73 Q0 S143
M201 X1000 Y1000 Z1000 E5000 ; sets maximum accelerations, mm/sec^2
M203 X200 Y200 Z12 E120 ; sets maximum feedrates, mm/sec
M204 P1250 R1250 T1250 ; sets acceleration (P, T) and retract acceleration (R), mm/sec^2
M205 X8.00 Y8.00 Z0.40 E1.50 ; sets the jerk limits, mm/sec
M205 S0 T0 ; sets the minimum extruding and travel feed rate, mm/sec
M107
M115 U3.6.0 ; tell printer latest fw version
M83  ; extruder relative mode
M104 S265 ; set extruder temp
M140 S100 ; set bed temp
M190 S100 ; wait for bed temp
M109 S265 ; wait for extruder temp
G28 W ; home all without mesh bed level
G80 ; mesh bed leveling
G1 Y-3.0 F1000.0 ; go outside print area
G92 E0.0
G1 X60.0 E9.0  F1000.0 ; intro line
M73 Q0 S143
M73 P0 R143
G1 X100.0 E12.5  F1000.0 ; intro line
G92 E0.0
M221 S95
M900 K30; Filament gcode
G21 ; set units to millimeters
G90 ; use absolute coordinates
M83 ; use relative distances for extrusion
;BEFORE_LAYER_CHANGE
G92 E0.0
;0.2


G1 E-0.80000 F2100.00000
G1 Z0.600 F10800.000
;AFTER_LAYER_CHANGE
;0.2
G1 X85.169 Y66.465
G1 Z0.200
G1 E0.80000 F2100.00000
M204 S1000
G1 F1200
G1 X86.320 Y65.287 E0.05162
G1 X87.405 Y64.431 E0.04332
G1 X88.886 Y63.535 E0.05429
G1 X90.147 Y62.972 E0.04332
G1 X91.564 Y62.530 E0.04653
G1 X93.024 Y62.262 E0.04653
G1 X94.388 Y62.175 E0.04286
G1 X155.484 Y62.171 E1.91562
G1 X156.961 Y62.261 E0.04639
G1 X158.306 Y62.503 E0.04286
G1 X159.858 Y62.974 E0.05086
G1 X161.212 Y63.582 E0.04653
G1 X162.384 Y64.286 E0.04286
G1 X163.671 Y65.279 E0.05098
G1 X164.718 Y66.325 E0.04641
G1 X165.564 Y67.399 E0.04286
G1 X166.414 Y68.781 E0.05086
G1 X167.023 Y70.134 E0.04653
G1 X167.434 Y71.437 E0.04286
G1 X167.740 Y73.045 E0.05132
G1 X167.829 Y74.516 E0.04618
G1 X167.827 Y135.571 E1.91436
G1 X167.739 Y136.968 E0.04387
G1 X167.496 Y138.313 E0.04286
G1 X167.025 Y139.862 E0.05075
G1 X166.352 Y141.330 E0.05064
G1 X165.641 Y142.497 E0.04286
G1 X164.764 Y143.621 E0.04469
G1 X163.680 Y144.713 E0.04824
G1 X162.595 Y145.569 E0.04332
G1 X161.108 Y146.468 E0.05452
G1 X159.849 Y147.030 E0.04320
G1 X158.429 Y147.471 E0.04664
G1 X156.973 Y147.738 E0.04641
G1 X155.514 Y147.828 E0.04584
G1 X94.425 Y147.826 E1.91539
G1 X93.032 Y147.739 E0.04376
G1 X91.687 Y147.496 E0.04286
G1 X90.138 Y147.025 E0.05075
G1 X88.670 Y146.352 E0.05064
G1 X87.503 Y145.641 E0.04286
G1 X86.379 Y144.764 E0.04469
G1 X85.287 Y143.680 E0.04824
G1 X84.431 Y142.595 E0.04332
G1 X83.532 Y141.108 E0.05452
G1 X82.970 Y139.849 E0.04320
G1 X82.529 Y138.429 E0.04664
G1 X82.262 Y136.973 E0.04641
G1 X82.172 Y135.514 E0.04584
G1 X82.174 Y74.421 E1.91550
G1 X82.261 Y73.032 E0.04364
G1 X82.504 Y71.687 E0.04286
G1 X82.975 Y70.138 E0.05075
G1 X83.648 Y68.670 E0.05064
G1 X84.359 Y67.503 E0.04286
G1 X85.132 Y66.512 E0.03941
; PURGING FINISHED
G1 F8640
G1 X86.320 Y65.287 E-0.39392
G1 X87.405 Y64.431 E-0.31901
G1 X87.579 Y64.326 E-0.04707
G1 E-0.04000 F2100.00000
G1 Z0.800 F10800.000
G1 X156.057 Y136.057
G1 Z0.200
G1 E0.80000 F2100.00000
G1 F1200
G1 X156.561 Y135.670 E0.01992
G1 X157.148 Y135.427 E0.01992
G1 X157.756 Y135.347 E0.01923
G1 X158.405 Y135.426 E0.02049
G1 X158.995 Y135.670 E0.02001
G1 X159.499 Y136.057 E0.01992
G1 X159.886 Y136.561 E0.01992
G1 X160.129 Y137.148 E0.01992
G1 X160.212 Y137.778 E0.01992
G1 X160.129 Y138.408 E0.01992
G1 X159.886 Y138.995 E0.01992
G1 X159.499 Y139.499 E0.01992
G1 X158.995 Y139.886 E0.01992
G1 X158.408 Y140.129 E0.01992
G1 X157.778 Y140.212 E0.01992
G1 X157.148 Y140.129 E0.01992
G1 X156.561 Y139.886 E0.01992
G1 X156.057 Y139.499 E0.01992
G1 X155.670 Y138.995 E0.01992
G1 X155.427 Y138.408 E0.01992
G1 X155.344 Y137.778 E0.01992
G1 X155.427 Y137.148 E0.01992
G1 X155.670 Y136.561 E0.01992
G1 X156.021 Y136.105 E0.01804
G1 X156.320 Y136.334 F10800.000
G1 F1200
G1 X156.751 Y136.000 E0.01712
G1 X157.246 Y135.795 E0.01681
G1 X157.758 Y135.727 E0.01618
G1 X158.308 Y135.794 E0.01738
G1 X158.805 Y136.000 E0.01684
G1 X159.230 Y136.326 E0.01681
G1 X159.556 Y136.751 E0.01681
G1 X159.761 Y137.246 E0.01681
G1 X159.831 Y137.778 E0.01681
G1 X159.761 Y138.309 E0.01681
G1 X159.556 Y138.805 E0.01681
G1 X159.230 Y139.230 E0.01681
G1 X158.805 Y139.556 E0.01681
G1 X158.309 Y139.761 E0.01681
G1 X157.778 Y139.831 E0.01681
G1 X157.246 Y139.761 E0.01681
G1 X156.751 Y139.556 E0.01681
G1 X156.326 Y139.230 E0.01681
G1 X156.000 Y138.805 E0.01681
G1 X155.795 Y138.309 E0.01681
G1 X155.725 Y137.778 E0.01681
G1 X155.795 Y137.246 E0.01681
G1 X156.000 Y136.751 E0.01681
G1 X156.283 Y136.382 E0.01460
G1 X156.215 Y135.948 F10800.000
G1 F8640
G1 X156.751 Y136.000 E-0.13952
G1 X157.246 Y135.795 E-0.12377
G1 X157.758 Y135.727 E-0.11916
G1 X158.308 Y135.794 E-0.12799
G1 X158.805 Y136.000 E-0.12401
G1 X159.230 Y136.326 E-0.12377
G1 X159.235 Y136.332 E-0.00177
G1 E-0.04000 F2100.00000
G1 Z0.800 F10800.000
G1 X94.656 Y137.778
G1 Z0.200
G1 E0.80000 F2100.00000
G1 F1200
G1 X94.573 Y138.408 E0.01992
G1 X94.330 Y138.995 E0.01992
G1 X93.943 Y139.499 E0.01992
G1 X93.439 Y139.886 E0.01992
G1 X92.852 Y140.129 E0.01992
G1 X92.222 Y140.212 E0.01992
G1 X91.592 Y140.129 E0.01992
G1 X91.005 Y139.886 E0.01992
G1 X90.501 Y139.499 E0.01992
G1 X90.114 Y138.995 E0.01992
G1 X89.871 Y138.408 E0.01992
G1 X89.788 Y137.778 E0.01992
G1 X89.871 Y137.148 E0.01992
G1 X90.114 Y136.561 E0.01992
G1 X90.501 Y136.057 E0.01992
G1 X91.005 Y135.670 E0.01992
G1 X91.592 Y135.427 E0.01992
G1 X92.200 Y135.347 E0.01923
G1 X92.849 Y135.426 E0.02049
G1 X93.439 Y135.670 E0.02001
G1 X93.943 Y136.057 E0.01992
G1 X94.330 Y136.561 E0.01992
G1 X94.573 Y137.148 E0.01992
G1 X94.648 Y137.718 E0.01804
G1 X94.274 Y137.768 F10800.000
G1 F1200
G1 X94.205 Y138.309 E0.01712
G1 X94.000 Y138.805 E0.01681
G1 X93.674 Y139.230 E0.01681
G1 X93.249 Y139.556 E0.01681
G1 X92.754 Y139.761 E0.01681
G1 X92.222 Y139.831 E0.01681
G1 X91.691 Y139.761 E0.01681
G1 X91.195 Y139.556 E0.01681
G1 X90.770 Y139.230 E0.01681
G1 X90.444 Y138.805 E0.01681
G1 X90.239 Y138.309 E0.01681
G1 X90.169 Y137.778 E0.01681
G1 X90.239 Y137.246 E0.01681
G1 X90.444 Y136.751 E0.01681
G1 X90.770 Y136.326 E0.01681
G1 X91.195 Y136.000 E0.01681
G1 X91.691 Y135.795 E0.01681
G1 X92.202 Y135.727 E0.01618
G1 X92.753 Y135.794 E0.01738
G1 X93.249 Y136.000 E0.01684
G1 X93.674 Y136.326 E0.01681
G1 X94.000 Y136.751 E0.01681
G1 X94.205 Y137.246 E0.01681
G1 X94.266 Y137.708 E0.01460
G1 X94.621 Y137.966 F10800.000
G1 F8640
G1 X94.205 Y138.309 E-0.13952
G1 X94.000 Y138.805 E-0.12377
G1 X93.674 Y139.230 E-0.12377
G1 X93.249 Y139.556 E-0.12377
G1 X92.754 Y139.761 E-0.12377
G1 X92.222 Y139.831 E-0.12377
G1 X92.215 Y139.830 E-0.00163
G1 E-0.04000 F2100.00000
G1 Z0.800 F10800.000
G1 X92.378 Y124.304
G1 Z0.200
G1 E0.80000 F2100.00000
G1 F1200
G1 X92.562 Y124.380 E0.00625
G1 X92.908 Y124.646 E0.01368
G1 X93.174 Y124.992 E0.01368
G1 X93.341 Y125.395 E0.01368
G1 X93.398 Y125.828 E0.01368
G1 X93.341 Y126.261 E0.01368
G1 X93.174 Y126.664 E0.01368
G1 X92.908 Y127.010 E0.01368
G1 X92.562 Y127.276 E0.01368
G1 X92.159 Y127.443 E0.01368
G1 X91.726 Y127.500 E0.01368
G1 X91.293 Y127.443 E0.01368
G1 X90.890 Y127.276 E0.01368
G1 X90.544 Y127.010 E0.01368
G1 X90.278 Y126.664 E0.01368
G1 X90.111 Y126.261 E0.01368
G1 X90.054 Y125.828 E0.01368
G1 X90.111 Y125.395 E0.01368
G1 X90.273 Y125.005 E0.01324
G1 X90.542 Y124.648 E0.01402
G1 X90.890 Y124.380 E0.01377
G1 X91.074 Y124.304 E0.00625
G1 X90.890 Y124.228 E0.00625
G1 X90.544 Y123.962 E0.01368
G1 X90.278 Y123.616 E0.01368
G1 X90.111 Y123.213 E0.01368
G1 X90.054 Y122.780 E0.01368
G1 X90.111 Y122.347 E0.01368
G1 X90.273 Y121.957 E0.01324
G1 X90.542 Y121.600 E0.01402
G1 X90.890 Y121.332 E0.01377
G1 X91.293 Y121.165 E0.01368
G1 X91.712 Y121.110 E0.01324
G1 X92.156 Y121.164 E0.01402
G1 X92.562 Y121.332 E0.01377
G1 X92.908 Y121.598 E0.01368
G1 X93.174 Y121.944 E0.01368
G1 X93.341 Y122.347 E0.01368
G1 X93.398 Y122.780 E0.01368
G1 X93.341 Y123.213 E0.01368
G1 X93.179 Y123.603 E0.01324
G1 X92.910 Y123.960 E0.01402
G1 X92.562 Y124.228 E0.01377
G1 X92.433 Y124.281 E0.00437
G1 X92.059 Y124.580 F10800.000
G1 F1200
G1 X92.372 Y124.710 E0.01060
G1 X92.639 Y124.915 E0.01057
G1 X92.844 Y125.182 E0.01057
G1 X92.973 Y125.494 E0.01057
G1 X93.017 Y125.828 E0.01057
G1 X92.973 Y126.162 E0.01057
G1 X92.844 Y126.474 E0.01057
G1 X92.639 Y126.741 E0.01057
G1 X92.372 Y126.946 E0.01057
G1 X92.060 Y127.075 E0.01057
G1 X91.726 Y127.119 E0.01057
G1 X91.392 Y127.075 E0.01057
G1 X91.080 Y126.946 E0.01057
G1 X90.813 Y126.741 E0.01057
G1 X90.608 Y126.474 E0.01057
G1 X90.479 Y126.162 E0.01057
G1 X90.435 Y125.828 E0.01057
G1 X90.479 Y125.494 E0.01057
G1 X90.603 Y125.194 E0.01019
G1 X90.812 Y124.916 E0.01091
G1 X91.080 Y124.710 E0.01060
G1 X91.392 Y124.581 E0.01057
G1 X91.714 Y124.538 E0.01019
G1 X92.000 Y124.573 E0.00902
G1 X92.298 Y124.341 F10800.000
G1 X92.060 Y124.027
G1 F1200
G1 X91.726 Y124.071 E0.01057
G1 X91.392 Y124.027 E0.01057
G1 X91.080 Y123.898 E0.01057
G1 X90.813 Y123.693 E0.01057
G1 X90.608 Y123.426 E0.01057
G1 X90.479 Y123.114 E0.01057
G1 X90.435 Y122.780 E0.01057
G1 X90.479 Y122.446 E0.01057
G1 X90.603 Y122.146 E0.01019
G1 X90.812 Y121.868 E0.01091
G1 X91.080 Y121.662 E0.01060
G1 X91.392 Y121.533 E0.01057
G1 X91.714 Y121.490 E0.01019
G1 X92.059 Y121.532 E0.01091
G1 X92.372 Y121.662 E0.01060
G1 X92.639 Y121.867 E0.01057
G1 X92.844 Y122.134 E0.01057
G1 X92.973 Y122.446 E0.01057
G1 X93.017 Y122.780 E0.01057
G1 X92.973 Y123.114 E0.01057
G1 X92.849 Y123.414 E0.01019
G1 X92.640 Y123.692 E0.01091
G1 X92.372 Y123.898 E0.01060
G1 X92.116 Y124.004 E0.00869
G1 X91.973 Y124.353 F10800.000
G1 F8640
G1 X91.726 Y124.071 E-0.09129
G1 X91.392 Y124.027 E-0.07784
G1 X91.080 Y123.898 E-0.07784
G1 X90.813 Y123.693 E-0.07784
G1 X90.608 Y123.426 E-0.07784
G1 X90.479 Y123.114 E-0.07784
G1 X90.435 Y122.780 E-0.07784
G1 X90.479 Y122.446 E-0.07784
G1 X90.603 Y122.146 E-0.07503
G1 X90.730 Y121.977 E-0.04882
G1 E-0.04000 F2100.00000
G1 Z0.800 F10800.000
G1 X95.285 Y131.258
G1 Z0.200
G1 E0.80000 F2100.00000
G1 F1200
G1 X95.203 Y130.429 E0.02614
G1 X95.203 Y79.571 E1.59461
G1 X95.285 Y78.742 E0.02614
G1 X95.535 Y77.916 E0.02704
G1 X95.942 Y77.156 E0.02704
G1 X96.489 Y76.489 E0.02704
G1 X97.156 Y75.942 E0.02704
G1 X97.916 Y75.535 E0.02704
G1 X98.742 Y75.285 E0.02704
G1 X99.571 Y75.203 E0.02614
G1 X150.429 Y75.203 E1.59461
G1 X151.258 Y75.285 E0.02614
G1 X152.084 Y75.535 E0.02704
G1 X152.844 Y75.942 E0.02704
G1 X153.511 Y76.489 E0.02704
G1 X154.058 Y77.156 E0.02704
G1 X154.465 Y77.916 E0.02704
G1 X154.715 Y78.742 E0.02704
G1 X154.797 Y79.571 E0.02614
G1 X154.797 Y130.429 E1.59461
G1 X154.715 Y131.258 E0.02614
G1 X154.465 Y132.084 E0.02704
G1 X154.058 Y132.844 E0.02704
G1 X153.511 Y133.511 E0.02704
G1 X152.844 Y134.058 E0.02704
G1 X152.084 Y134.465 E0.02704
G1 X151.258 Y134.715 E0.02704
G1 X150.429 Y134.797 E0.02614
G1 X99.571 Y134.797 E1.59461
G1 X98.742 Y134.715 E0.02614
G1 X97.916 Y134.465 E0.02704
G1 X97.156 Y134.058 E0.02704
G1 X96.489 Y133.511 E0.02704
G1 X95.942 Y132.844 E0.02704
G1 X95.535 Y132.084 E0.02704
G1 X95.302 Y131.316 E0.02516
G1 X95.663 Y131.206 F10800.000
G1 F1200
G1 X95.580 Y130.410 E0.02509
G1 X95.580 Y79.590 E1.59345
G1 X95.656 Y78.816 E0.02439
G1 X95.885 Y78.061 E0.02472
G1 X96.257 Y77.366 E0.02472
G1 X96.757 Y76.757 E0.02472
G1 X97.366 Y76.257 E0.02472
G1 X98.061 Y75.885 E0.02472
G1 X98.816 Y75.656 E0.02472
G1 X99.590 Y75.580 E0.02439
G1 X150.410 Y75.580 E1.59345
G1 X151.184 Y75.656 E0.02439
G1 X151.939 Y75.885 E0.02472
G1 X152.634 Y76.257 E0.02472
G1 X153.243 Y76.757 E0.02472
G1 X153.743 Y77.366 E0.02472
G1 X154.115 Y78.061 E0.02472
G1 X154.344 Y78.816 E0.02472
G1 X154.420 Y79.590 E0.02439
G1 X154.420 Y130.410 E1.59345
G1 X154.344 Y131.184 E0.02439
G1 X154.115 Y131.939 E0.02472
G1 X153.743 Y132.634 E0.02472
G1 X153.243 Y133.243 E0.02472
G1 X152.634 Y133.743 E0.02472
G1 X151.939 Y134.115 E0.02472
G1 X151.184 Y134.344 E0.02472
G1 X150.410 Y134.420 E0.02439
G1 X99.590 Y134.420 E1.59345
G1 X98.816 Y134.344 E0.02439
G1 X98.061 Y134.115 E0.02472
G1 X97.366 Y133.743 E0.02472
G1 X96.757 Y133.243 E0.02472
G1 X96.257 Y132.634 E0.02472
G1 X95.885 Y131.939 E0.02472
G1 X95.680 Y131.264 E0.02212
G1 X95.284 Y131.079 F10800.000
G1 F8640
G1 X95.580 Y130.410 E-0.19842
G1 X95.580 Y127.978 E-0.56158
G1 E-0.04000 F2100.00000
G1 Z0.800 F10800.000
G1 X92.222 Y74.656
G1 Z0.200
G1 E0.80000 F2100.00000
G1 F1200
G1 X91.592 Y74.573 E0.01992
G1 X91.005 Y74.330 E0.01992
G1 X90.501 Y73.943 E0.01992
G1 X90.114 Y73.439 E0.01992
G1 X89.871 Y72.852 E0.01992
G1 X89.788 Y72.222 E0.01992
G1 X89.871 Y71.592 E0.01992
G1 X90.114 Y71.005 E0.01992
G1 X90.501 Y70.501 E0.01992
G1 X91.005 Y70.114 E0.01992
G1 X91.592 Y69.871 E0.01992
G1 X92.200 Y69.791 E0.01923
G1 X92.849 Y69.870 E0.02049
G1 X93.439 Y70.114 E0.02001
G1 X93.943 Y70.501 E0.01992
G1 X94.330 Y71.005 E0.01992
G1 X94.573 Y71.592 E0.01992
G1 X94.656 Y72.222 E0.01992
G1 X94.573 Y72.852 E0.01992
G1 X94.330 Y73.439 E0.01992
G1 X93.943 Y73.943 E0.01992
G1 X93.439 Y74.330 E0.01992
G1 X92.852 Y74.573 E0.01992
G1 X92.282 Y74.648 E0.01804
G1 X92.232 Y74.274 F10800.000
G1 F1200
G1 X91.691 Y74.205 E0.01712
G1 X91.195 Y74.000 E0.01681
G1 X90.770 Y73.674 E0.01681
G1 X90.444 Y73.249 E0.01681
G1 X90.239 Y72.754 E0.01681
G1 X90.169 Y72.222 E0.01681
G1 X90.239 Y71.691 E0.01681
G1 X90.444 Y71.195 E0.01681
G1 X90.770 Y70.770 E0.01681
G1 X91.195 Y70.444 E0.01681
G1 X91.691 Y70.239 E0.01681
G1 X92.202 Y70.171 E0.01618
G1 X92.753 Y70.238 E0.01738
G1 X93.249 Y70.444 E0.01684
G1 X93.674 Y70.770 E0.01681
G1 X94.000 Y71.195 E0.01681
G1 X94.205 Y71.691 E0.01681
G1 X94.275 Y72.222 E0.01681
G1 X94.205 Y72.754 E0.01681
G1 X94.000 Y73.249 E0.01681
G1 X93.674 Y73.674 E0.01681
G1 X93.249 Y74.000 E0.01681
G1 X92.754 Y74.205 E0.01681
G1 X92.292 Y74.266 E0.01460
G1 X92.034 Y74.621 F10800.000
G1 F8640
G1 X91.691 Y74.205 E-0.13952
G1 X91.195 Y74.000 E-0.12377
G1 X90.770 Y73.674 E-0.12377
G1 X90.444 Y73.249 E-0.12377
G1 X90.239 Y72.754 E-0.12377
G1 X90.169 Y72.222 E-0.12377
G1 X90.170 Y72.215 E-0.00163
G1 E-0.04000 F2100.00000
G1 Z0.800 F10800.000
G1 X155.344 Y72.222
G1 Z0.200
G1 E0.80000 F2100.00000
G1 F1200
G1 X155.427 Y71.592 E0.01992
G1 X155.670 Y71.005 E0.01992
G1 X156.057 Y70.501 E0.01992
G1 X156.561 Y70.114 E0.01992
G1 X157.148 Y69.871 E0.01992
G1 X157.756 Y69.791 E0.01923
G1 X158.405 Y69.870 E0.02049
G1 X158.995 Y70.114 E0.02001
G1 X159.499 Y70.501 E0.01992
G1 X159.886 Y71.005 E0.01992
G1 X160.129 Y71.592 E0.01992
G1 X160.212 Y72.222 E0.01992
G1 X160.129 Y72.852 E0.01992
G1 X159.886 Y73.439 E0.01992
G1 X159.499 Y73.943 E0.01992
G1 X158.995 Y74.330 E0.01992
G1 X158.408 Y74.573 E0.01992
G1 X157.778 Y74.656 E0.01992
G1 X157.148 Y74.573 E0.01992
G1 X156.561 Y74.330 E0.01992
G1 X156.057 Y73.943 E0.01992
G1 X155.670 Y73.439 E0.01992
G1 X155.427 Y72.852 E0.01992
G1 X155.352 Y72.282 E0.01804
G1 X155.726 Y72.232 F10800.000
G1 F1200
G1 X155.795 Y71.691 E0.01712
G1 X156.000 Y71.195 E0.01681
G1 X156.326 Y70.770 E0.01681
G1 X156.751 Y70.444 E0.01681
G1 X157.246 Y70.239 E0.01681
G1 X157.758 Y70.171 E0.01618
G1 X158.308 Y70.238 E0.01738
G1 X158.805 Y70.444 E0.01684
G1 X159.230 Y70.770 E0.01681
G1 X159.556 Y71.195 E0.01681
G1 X159.761 Y71.691 E0.01681
G1 X159.831 Y72.222 E0.01681
G1 X159.761 Y72.754 E0.01681
G1 X159.556 Y73.249 E0.01681
G1 X159.230 Y73.674 E0.01681
G1 X158.805 Y74.000 E0.01681
G1 X158.309 Y74.205 E0.01681
G1 X157.778 Y74.275 E0.01681
G1 X157.246 Y74.205 E0.01681
G1 X156.751 Y74.000 E0.01681
G1 X156.326 Y73.674 E0.01681
G1 X156.000 Y73.249 E0.01681
G1 X155.795 Y72.754 E0.01681
G1 X155.734 Y72.292 E0.01460
G1 X155.379 Y72.034 F10800.000
G1 F8640
G1 X155.795 Y71.691 E-0.13952
G1 X156.000 Y71.195 E-0.12377
G1 X156.326 Y70.770 E-0.12377
G1 X156.751 Y70.444 E-0.12377
G1 X157.246 Y70.239 E-0.12377
G1 X157.758 Y70.171 E-0.11916
G1 X157.785 Y70.175 E-0.00624
G1 E-0.04000 F2100.00000
G1 Z0.800 F10800.000
G1 X157.772 Y65.227
G1 Z0.200
G1 E0.80000 F2100.00000
G1 F1200
